X:1
T:Raise High the Notes of Exultation
T:Raise High the Notes of Exultation
T:German tune
T:Johann Schöner, 1790; tr. Frances Cox, 1841
T:Public Domain Courtesy of the Cyber Hymnal™
C:German tune
Z:Public Domain
Z:Courtesy of the Cyber Hymnal™
%%score ( 1 2 ) ( 3 4 )
L:1/8
M:3/4
K:G
V:1 treble 
V:2 treble 
V:3 bass 
V:4 bass 
V:1
 [B,D]2 [CE]2 [CF]2 | [B,G]4 [DB]2 | (A2 G2) [DA]2 | [DB]2 [DA]2 z2 | [FA]2 [GB]2 [Gc]2 | %5
w: 1.~Raise high the|notes of|ex- * ult-|a- tion|To God’s bright|
w: 2.~May peace and|love, your|lives * a-|dorn- ing,|At- tend you|
w: 3.~By God’s own|Word each|ac- * tion|mea- sure,|Let Christ your|
w: 4.~With cheer- ful|faith in|God * con-|fide ye,|The pil- grim’s|
 [Gd]4 [Ac]2 | [GB]4 [FA]2 | [DG]4 z2 | [B,D]2 [CE]2 [CF]2 | [B,G]4 [DB]2 | (A2 G2) [DA]2 | %11
w: throne with|voic- es|clear;|The might- y|Lord of|all * cre-|
w: all your|course a-|long;|Your Christ- ian|walk, each|night * and|
w: great ex-|em- plar|be;|Still fix your|hearts on|heav’n- * ly|
w: staff with|cour- age|take;|And, till the|si- lent|grave * di-|
 [DB]2 [DA]2 z2 | [FA]2 [GB]2 [Gc]2 | [Gd]4 [Ac]2 | [GB]4 [FA]2 | [DG]4 z2 || %16
w: a- tion|Lends to our|songs a|Fa- ther’s|ear.|
w: morn- ing,|More stead- fast|make with|prayer and|song.|
w: trea- sure,|We hast- en|tow’rds e-|ter- ni-|ty.|
w: vide ye,|God and each|o- ther|ne’er for-|sake.|
"^Refrain" [GB]2 [GB]2 [GB]2 | (d2 c2) [FA]2 | [Ac]2 [GB]2 G2 | ([GB]2 [FA]2) z2 | %20
w: ||||
w: E- ter- nal|Lord * of|Hea- ven a-|bove, *|
w: ||||
w: ||||
 [Ge]2 [Gd]2 [Ac]2 | ([GB]2 [FA]2) [EG]2 | ([EA]2 [DG]2) [DF]2 | d6 | [Ee]2 [Gd]2 c2 | %25
w: |||||
w: Look down and|bless * their|plight- * ed|love;|Look down and|
w: |||||
w: |||||
 ([GB]2 [FA]2) [EG]2 | ([EA]2 [DG]2) [CF]2 | [B,G]6 |] %28
w: |||
w: bless * their|plight- * ed|love.|
w: |||
w: |||
V:2
 x6 | x6 | D4 x2 | x6 | x6 | x6 | x6 | x6 | x6 | x6 | D4 x2 | x6 | x6 | x6 | x6 | x6 || x6 | %17
 A4 x2 | x4 G2 | x6 | x6 | x6 | x6 | (D2 G2 =F2) | x4 (GA) | x6 | x6 | x6 |] %28
V:3
 [G,,G,]2 [C,G,]2 [A,,D,]2 | [G,,D,]4 [G,,G,]2 | (F,2 E,2) [D,F,]2 | G,2 [D,F,]2 z2 | %4
 [D,D]2 [G,D]2 [E,C]2 | [B,,B,]4 [C,E]2 | [D,D]4 [D,C]2 | [G,B,]4 z2 | [G,,G,]2 [C,G,]2 [A,,D,]2 | %9
 [G,,D,]4 [G,,G,]2 | (F,2 E,2) [D,F,]2 | G,2 [D,F,]2 z2 | [D,D]2 [G,D]2 [E,C]2 | [B,,B,]4 [C,E]2 | %14
 [D,D]4 [D,C]2 | [G,B,]4 z2 || [G,D]2 [B,D]2 [G,D]2 | [F,D]4 [D,D]2 | [G,D]4 [E,^C]2 | [D,D]4 z2 | %20
 [C,G,]2 [G,B,]2 [F,D]2 | ([G,D]2 [D,C]2) [E,B,]2 | ([C,C]2 [D,B,]2) [C,A,]2 | [B,,G,]6 | %24
 [C,C]2 [B,,D]2 ([E,E][F,D]) | ([G,D]2 [D,C]2) [E,B,]2 | ([C,C]2 [D,B,]2) [D,A,]2 | [G,,G,]6 |] %28
V:4
 x6 | x6 | D,4 x2 | G,2 x4 | x6 | x6 | x6 | x6 | x6 | x6 | D,4 x2 | G,2 x4 | x6 | x6 | x6 | x6 || %16
 x6 | x6 | x6 | x6 | x6 | x6 | x6 | x6 | x6 | x6 | x6 | x6 |] %28

